X:1
T:Love At The Endings
R:reel
M:4/4
L:1/8
K:D
|:DEFA B2dB|AF~F2 BFAF|DEFA B2AF|GFED B,E~E2|
|DEFA B2dB|AF~F2 ABde|~f2fe dfec|1 dBAF D3E:|2 dBAF D4|]
|:~f2fe defg|a2ba afeg|~f2fe dfbf|afdf e3e|
|effe d2dB|AF~F2 ABde|~f2fe dfec|1 dBAF D4:|2 dBAF D3E|]